X: 381
P: Longways for as many as will
M: 6/4
L: 1/4
K: F
d |\
c2F A>GF | GAG B2D | c2F A>GA | Ffc ABc |\
dcd fcA | GAG B2d | c2F A2G | (Ff)c A2F :|
|:\
(Ff)c A/B/cA | (Gg)d B2G | (Ff)c A/B/cA | (Ff)c A>Bc |\

